X:1
T:Charlie is my Darling
M:2/2
L:1/16
K:D
 B,3 C D3 E F4 B3 F| G4 B3 G F4 B4| B,3 C D3 E F4 B3 c| d4 c3 d B4 z3 B|\
 ^A3 F ^G3 A B3- c d3 B| ^A3 F ^G3 A B6 c2| d3 c d3 B A3- F D2E-F|\
 G3- E F3 D C4 F4| B,3 C D3 E F4 B3 F| G4 B3 G F4 B4| B,3 C D3 E F4 B3 c|\
 d4 c3 d B8|
